Font-Source/Egyptian2/svg-my/13064.svg

<?xml version="1.0" encoding="UTF-8" standalone="no"?>
<svg
   width="600"
   height="1000"
   id="svg2"
   sodipodi:version="0.32"
   inkscape:version="1.4.2 (f4327f4, 2025-05-13)"
   sodipodi:docname="13064.svg"
   inkscape:output_extension="org.inkscape.output.svg.inkscape"
   version="1.0"
   xmlns:inkscape="http://www.inkscape.org/namespaces/inkscape"
   xmlns:sodipodi="http://sodipodi.sourceforge.net/DTD/sodipodi-0.dtd"
   xmlns="http://www.w3.org/2000/svg"
   xmlns:svg="http://www.w3.org/2000/svg"
   xmlns:rdf="http://www.w3.org/1999/02/22-rdf-syntax-ns#"
   xmlns:cc="http://creativecommons.org/ns#"
   xmlns:dc="http://purl.org/dc/elements/1.1/">
  <metadata
     id="metadata9">
    <rdf:RDF>
      <cc:Work
         rdf:about="">
        <dc:format>image/svg+xml</dc:format>
        <dc:type
           rdf:resource="http://purl.org/dc/dcmitype/StillImage" />
      </cc:Work>
    </rdf:RDF>
  </metadata>
  <defs
     id="defs7" />
  <sodipodi:namedview
     inkscape:window-height="998"
     inkscape:window-width="1680"
     inkscape:pageshadow="2"
     inkscape:pageopacity="0.0"
     guidetolerance="10.0"
     gridtolerance="10.0"
     objecttolerance="10.0"
     borderopacity="1.0"
     bordercolor="#666666"
     pagecolor="#ffffff"
     id="base"
     width="1800px"
     height="1800px"
     inkscape:zoom="0.41851618"
     inkscape:cx="-204.29318"
     inkscape:cy="875.71287"
     inkscape:window-x="-8"
     inkscape:window-y="-8"
     inkscape:current-layer="svg2"
     inkscape:showpageshadow="2"
     inkscape:pagecheckerboard="0"
     inkscape:deskcolor="#d1d1d1"
     inkscape:window-maximized="1"
     showguides="true">
    <sodipodi:guide
       position="255.88696,954.47409"
       orientation="0.95316825,-0.30244055"
       id="guide1"
       inkscape:locked="false" />
    <sodipodi:guide
       position="263.21319,956.53952"
       orientation="0.9586803,-0.28448565"
       id="guide2"
       inkscape:locked="false" />
    <sodipodi:guide
       position="113.0293,51.80469"
       orientation="0,-1"
       id="guide3"
       inkscape:locked="false" />
    <sodipodi:guide
       position="72.0022,51.80469"
       orientation="1,0"
       id="guide6"
       inkscape:locked="false" />
  </sodipodi:namedview>
  <path
     style="fill:#000000;stroke:none;stroke-width:0.999999"
     d="M 31.396484,952.11914 0,1000 l 331.29226,0 v -47.88086 h -14.91407 -16.48437 z m 8.634766,14.12891 275.56179,0 v 20.4082 l -288.90554,0 z"
     id="path6"
     sodipodi:nodetypes="cccccccccccc" />
  <path
     id="path3"
     style="fill:#000000;stroke:none;stroke-width:1"
     d="M 223.12172,-1.7694202e-8 C 209.59508,-1.7694202e-8 199.1606,12.453239 191.83361,37.252148 L 129.31197,181.51999 c 6.51185,17.52851 2.70696,40.93935 -3.42524,50.09675 -2.81803,3.94523 -3.93987,7.87171 -3.37629,11.81703 -6.19973,10.145 -10.8551,18.33391 -13.95497,24.53364 -1.6445,3.28903 -4.14097,9.3917 -0.45168,10.12888 h 8.44261 l -0.78856,3.37629 c -3.38171,2.2544 -3.38171,4.83608 0,7.65406 -3.99905,4.79867 -0.74484,6.14605 0.78669,6.75072 l 0.90146,11.03034 c -4.2135,20.07405 -19.085597,42.53263 -41.424515,39.02123 -7.02012,-8.42511 -16.54906,2.43231 -5.079497,9.05426 29.290472,16.91085 55.726882,-27.87361 66.761782,-43.91063 l 11.81703,-0.78856 c 0,6.19975 1.4578,12.93081 4.27588,20.25776 -0.56278,7.32744 -4.26516,11.81433 -11.02848,13.50517 -20.29005,3.94526 -30.72262,12.30405 -31.28622,24.98533 -0.56356,12.68126 4.48468,22.16187 15.19332,28.36162 -11.27225,35.50754 -14.4855,62.82202 -8.44074,153.49338 -11.48506,4.8358 -23.633737,5.25583 -36.932207,1.32681 -13.298438,-3.92901 -23.948236,-7.5383 -32.108664,-10.86286 -7.140377,-2.90897 -11.306594,-5.37916 -12.430556,-7.36235 -0.06498,-0.13799 -0.208566,-0.47186 -0.242776,-0.60413 l -0.120448,-0.12044 c -0.302283,-2.11572 -1.925386,-3.08004 -4.947758,-2.77782 -3.022376,0.30245 -6.213315,0.064 -9.537935,-0.84314 -3.324619,-0.90673 -7.53532,-1.87119 -12.6733347,-2.77782 -5.138048,-0.90672 -8.92672204,0.89785 -11.344647,5.43144 -2.417883,4.53358 -1.997816,9.34762 1.32680396,14.48569 3.32462104,5.13825 7.29475904,8.749 11.82831974,10.86474 4.533561,2.11544 7.722621,2.65592 9.536053,1.44725 35.664046,13.29841 67.069432,21.71981 94.270849,25.34667 6.64927,70.11914 14.55662,112.18629 24.98345,181.51059 10.42682,69.32419 14.74622,87.41272 13.05538,108.82996 0,15.21747 -5.21621,24.52999 -15.64311,27.91182 -10.42683,3.38194 -30.78806,14.93618 -61.223085,34.66252 H 60.724644 c -12.9631,0 -13.523975,8.7517 -1.688146,26.22369 H 213.78328 c 15.2175,-5.63616 16.3393,-25.38141 3.3763,-59.19807 10.14505,-70.45139 11.82961,-87.02515 5.06633,-104.21529 -16.53115,-42.01719 9.39687,-45.01033 5.06443,-102.05478 -2.88128,-37.94225 -1.51331,-59.3253 8.44073,-72.25344 15.83135,-20.56151 12.18526,-55.74645 -7.54114,-103.08989 12.39945,-77.77845 22.83395,-100.36413 31.28811,-116.14524 8.45417,-15.78112 16.86802,-24.19682 25.3222,-25.32409 4.96227,0.16823 9.99345,0.27317 15.09358,0.31618 v 581.96462 h 13.49012 V 381.58514 c 25.21308,-0.3196 52.03523,-2.10069 80.47021,-5.3505 7.32673,-30.99828 11.81434,-57.41797 13.50519,-79.11705 1.69083,-21.69906 5.95516,-44.64182 12.71851,-68.87715 10.14502,-11.83585 17.43681,-25.86083 21.9459,-42.20555 1.12733,-3.9453 1.68814,-9.89049 1.68814,-17.78107 0,-7.89053 0.33725,-14.95949 0.90147,-21.15922 0,-0.94588 -0.11551,-4.1611 -1.68626,-4.1611 -1.6908,-1.69079 -3.37357,-1.46782 -5.06443,0.78668 -1.19381,-1.79055 -2.24017,-2.45071 -3.12789,-2.47106 -1.29743,-0.0299 -2.25574,1.30642 -2.83803,2.47106 -1.23587,-1.545 -3.53872,-3.71954 -5.84924,0.90147 -3.48848,-3.4885 -5.96779,-0.59078 -5.96779,3.3763 0.56353,9.58142 0.39516,16.87526 -0.4498,21.9478 -0.84538,5.07246 -3.2571,13.26139 -7.20239,24.53364 -0.77492,1.54997 -1.70333,2.66778 -2.47669,3.15046 -0.28146,0.14048 -0.61775,0.22582 -0.89959,0.22582 -0.10241,-0.0131 -0.41551,-0.0712 -0.5646,-0.11103 l -0.11104,-0.11292 h -0.11292 c -0.65628,-0.48788 -1.3007,-1.60243 -1.68814,-3.15233 0,-2.81804 0.7859,-6.7464 2.4767,-11.81892 1.69011,-5.07375 2.19487,-9.1119 1.34939,-11.92994 -0.84537,-2.81804 -2.69621,-3.60394 -5.51424,-2.47671 -2.25443,0.56353 -3.20829,3.20022 -2.9265,7.99095 0.28201,4.79068 -1.73884,11.6347 -5.96592,20.37068 -4.22865,8.7342 -4.95791,18.66462 -2.13983,29.93684 -15.21758,54.10678 -25.6501,93.03628 -31.28623,116.70799 -15.43834,-2.94066 -31.83099,-5.06076 -49.18398,-6.33669 v -83.49457 c 0,-35.26796 -9.58607,-71.89116 -49.39852,-71.90903 L 289.86092,62.574351 C 295.49704,38.339031 292.69241,22.856238 281.4202,16.092914 270.14798,9.32955 260.05134,8.7686173 251.03354,14.404767 245.96102,4.8233475 236.64841,-1.7694202e-8 223.12172,-1.7694202e-8 Z M 224.55016,18.789808 c 1.98924,0.03345 4.03833,0.614264 6.22375,1.467954 9.30263,3.633907 11.48911,12.691599 5.85299,29.599969 L 194.58696,181.51999 H 149.29872 L 206.24026,40.628443 c 6.91828,-17.117881 12.3422,-21.938969 18.3099,-21.838635 z m 36.38643,10.994597 c 2.70567,0.01149 5.36309,0.829834 7.87802,1.503711 9.50764,2.547563 11.82508,11.790128 6.7526,28.698496 L 246.64098,181.51999 H 204.2397 L 243.37949,51.545878 c 5.41824,-17.907885 11.60462,-21.786744 17.5571,-21.761473 z m 165.89383,2.290383 -102.3032,263.015882 17.78294,5.85301 84.52026,-218.89824 77.76767,164.76461 15.19332,-5.06443 -8.44073,-18.56962 7.65407,-5.85299 12.71662,16.88145 12.60558,-8.44072 -12.60558,-16.99438 9.22928,-6.7526 12.71662,16.99439 10.12888,-12.71851 z m 10.12889,38.040705 95.5506,121.772387 -27.01034,18.56962 z M 147.2398,195.01011 h 101.80825 c -1.46845,44.93597 -10.65748,78.76422 -31.88847,89.95168 0,-12.17238 -7.09905,-22.5473 -17.35573,-29.29319 0.61812,-1.21695 1.19184,-2.4482 1.71261,-3.68119 3.10015,-7.32694 2.9314,-12.88111 -0.4498,-16.54458 -3.38205,-3.6632 -7.92411,-4.9533 -13.84205,-3.82609 -5.9179,1.1272 -9.22845,8.75518 -9.792,22.8455 h -4.16485 l -0.89959,-15.19333 c -7.89056,-4.50891 -18.32501,-7.64949 -31.28812,-9.34032 4.22955,-6.92752 7.12228,-20.63542 6.15975,-34.91848 z m 116.62893,0 h 0.0903 c 11.92097,0 35.93475,2.67649 35.93475,58.41891 v 82.68155 c -4.95692,-0.23404 -9.98807,-0.40228 -15.09356,-0.50436 -17.47195,-9.58139 -36.09535,-13.50786 -55.82177,-11.81704 -6.19975,-2.25443 -9.00437,-10.66829 -8.44074,-25.32219 36.56966,-23.04811 42.51684,-62.21365 43.33098,-103.45687 z m -72.08782,42.10392 c 2.53926,-0.12241 4.13153,1.93407 5.1209,4.29283 1.76101,4.19838 -0.15934,10.00619 -5.51423,17.33314 -5.35426,7.32695 -9.67367,10.91557 -13.05538,10.91557 -3.54029,0 -1.82885,-3.82411 0,-6.75072 l 4.16486,-4.16297 c 0.56353,-11.83584 2.77896,-18.68792 6.4157,-20.70944 1.06935,-0.59441 2.02173,-0.8776 2.86815,-0.91841 z m -59.14159,0.46674 c 16.34473,1.12727 27.5632,4.4927 33.76294,10.12888 v 15.19331 h 7.65406 c -3.38174,3.94527 -4.33557,7.31084 -2.92651,10.12888 1.40908,2.81804 5.32034,3.86923 12.54349,0.66624 3.47474,-1.54084 6.9405,-4.6221 10.03101,-8.48215 9.0954,6.53876 13.32639,13.39667 13.32639,33.25105 0,9.01779 1.68272,18.89137 5.06443,29.59996 -12.39948,11.27229 -26.19758,11.83313 -41.41511,1.68815 -6.1998,-8.45426 -9.90315,-18.6637 -11.03035,-30.49956 l -18.56962,3.37628 c -8.45416,1.69082 -13.67053,1.69082 -15.64311,0 -1.97266,-1.6908 -2.9265,-3.9345 -2.9265,-6.75258 l 13.50517,-7.54113 v -3.37631 l -15.19332,-3.48921 v -3.37629 h 8.44073 c -3.38171,-5.63607 -6.74717,-7.31882 -10.12887,-5.06445 -2.11355,1.40908 -3.70702,1.98721 -4.72569,1.914 -0.82443,-0.0592 -1.23646,-0.9296 -1.23646,-1.01064 3.37872,-8.45795 7.08131,-15.52498 11.02659,-21.16112 10.145,-7.89056 20.57947,-8.45145 31.28812,-1.68814 l 6.75258,0.90147 0.78856,-0.90147 c -7.32749,-3.94564 -13.499,-6.58189 -18.57151,-7.99094 -5.07252,-1.40903 -10.45677,-1.01608 -16.09291,1.23835 z m 4.61465,12.04286 c -4.50891,0.14048 -7.48151,2.63752 -8.89054,7.42822 2.81809,6.1997 11.90574,5.86189 27.12328,-0.90147 -7.60878,-4.50889 -13.72385,-6.66765 -18.23274,-6.52675 z M 124.7613,287.4385 c 2.14873,-0.10562 4.77816,-0.14101 7.87802,0 l -14.40477,4.27588 c -1.00492,-1.26301 -0.97192,-1.92723 -0.1148,-2.92273 1.07287,-0.74013 3.34938,-1.18758 6.63967,-1.34939 z m 104.89095,48.84334 c 6.23495,-0.31685 14.1376,1.48592 23.85988,5.29028 -15.21752,19.72642 -35.74864,29.59997 -61.67475,29.59997 -26.48975,0 -43.43033,-5.38619 -50.75733,-16.0948 l 26.22368,-11.81701 c 16.90832,8.45416 35.75666,6.43355 56.61032,-5.96593 1.69082,-0.56352 3.65987,-0.90683 5.7382,-1.01251 z m 25.54803,35.67691 c -17.47194,38.32561 -32.61689,73.58945 -45.57996,154.18596 18.59918,44.52529 20.50501,74.92787 5.85111,91.27285 -11.07441,24.76132 -9.79376,56.51594 -7.53926,79.90562 5.70716,59.2129 -24.19201,59.46692 -5.96591,103.62999 7.32696,17.75378 5.86915,34.32932 -4.27589,104.2172 8.45416,24.79896 8.45416,39.15789 0,43.10325 H 95.387173 v -3.37627 c 21.980847,-12.39964 40.436247,-21.93512 55.371967,-28.69851 14.93572,-6.76328 22.50862,-16.29888 22.50862,-28.69849 0,-19.72627 -3.86948,-34.78531 -11.47828,-99.60066 -7.60877,-64.81588 -14.90264,-123.79499 -21.94778,-218.20004 -7.04513,-94.40496 -3.84761,-140.27127 9.67909,-185.92387 5.07247,4.50894 20.33034,6.75259 45.69288,6.75259 25.92615,-10e-6 45.89633,-6.17018 59.98661,-18.56962 z"
     sodipodi:nodetypes="sccccscccccccsccccsccssccccccsscccscscscccscscsccccccsccscccscccccccccccccccccccsccscsssccccsssccccscccccccccccccccccccccccccsccccccsscccccsscsccssccccsscsccccscccccccscccccsccccccccccccccsccccccccsccccsssscsc"
     inkscape:transform-center-x="-184.68908"
     inkscape:transform-center-y="-466.40537" />
</svg>

<?xml version="1.0" encoding="UTF-8" standalone="no"?>
<svg
   width="600"
   height="1000"
   id="svg2"
   sodipodi:version="0.32"
   inkscape:version="1.4.2 (f4327f4, 2025-05-13)"
   sodipodi:docname="13064.svg"
   inkscape:output_extension="org.inkscape.output.svg.inkscape"
   version="1.0"
   xmlns:inkscape="http://www.inkscape.org/namespaces/inkscape"
   xmlns:sodipodi="http://sodipodi.sourceforge.net/DTD/sodipodi-0.dtd"
   xmlns="http://www.w3.org/2000/svg"
   xmlns:svg="http://www.w3.org/2000/svg"
   xmlns:rdf="http://www.w3.org/1999/02/22-rdf-syntax-ns#"
   xmlns:cc="http://creativecommons.org/ns#"
   xmlns:dc="http://purl.org/dc/elements/1.1/">
  <metadata
     id="metadata9">
    <rdf:RDF>
      <cc:Work
         rdf:about="">
        <dc:format>image/svg+xml</dc:format>
        <dc:type
           rdf:resource="http://purl.org/dc/dcmitype/StillImage" />
      </cc:Work>
    </rdf:RDF>
  </metadata>
  <defs
     id="defs7" />
  <sodipodi:namedview
     inkscape:window-height="998"
     inkscape:window-width="1680"
     inkscape:pageshadow="2"
     inkscape:pageopacity="0.0"
     guidetolerance="10.0"
     gridtolerance="10.0"
     objecttolerance="10.0"
     borderopacity="1.0"
     bordercolor="#666666"
     pagecolor="#ffffff"
     id="base"
     width="1800px"
     height="1800px"
     inkscape:zoom="0.41851618"
     inkscape:cx="-204.29318"
     inkscape:cy="875.71287"
     inkscape:window-x="-8"
     inkscape:window-y="-8"
     inkscape:current-layer="svg2"
     inkscape:showpageshadow="2"
     inkscape:pagecheckerboard="0"
     inkscape:deskcolor="#d1d1d1"
     inkscape:window-maximized="1"
     showguides="true">
    <sodipodi:guide
       position="255.88696,954.47409"
       orientation="0.95316825,-0.30244055"
       id="guide1"
       inkscape:locked="false" />
    <sodipodi:guide
       position="263.21319,956.53952"
       orientation="0.9586803,-0.28448565"
       id="guide2"
       inkscape:locked="false" />
    <sodipodi:guide
       position="113.0293,51.80469"
       orientation="0,-1"
       id="guide3"
       inkscape:locked="false" />
    <sodipodi:guide
       position="72.0022,51.80469"
       orientation="1,0"
       id="guide6"
       inkscape:locked="false" />
  </sodipodi:namedview>
  <path
     id="path6"
     style="fill:#000000;stroke:none;stroke-width:0.999999"
     d="M 223.12109 0 C 209.59445 0 199.16097 12.453044 191.83398 37.251953 L 129.3125 181.51953 C 135.82435 199.04804 132.01892 222.45979 125.88672 231.61719 C 123.06869 235.56242 121.94619 239.48827 122.50977 243.43359 C 116.31004 253.57859 111.65456 261.76707 108.55469 267.9668 C 106.91019 271.25583 104.41423 277.35852 108.10352 278.0957 L 116.54688 278.0957 L 115.75781 281.47266 C 112.3761 283.72706 112.3761 286.30897 115.75781 289.12695 C 111.75876 293.92562 115.01339 295.27228 116.54492 295.87695 L 117.44531 306.9082 C 113.23181 326.98225 98.360402 349.44109 76.021484 345.92969 C 69.001364 337.50458 59.471843 348.36047 70.941406 354.98242 C 100.23188 371.89327 126.66822 327.10929 137.70312 311.07227 L 149.52148 310.2832 C 149.52148 316.48295 150.97879 323.21407 153.79688 330.54102 C 153.23409 337.86846 149.5309 342.35603 142.76758 344.04688 C 122.47753 347.99214 112.04602 356.35192 111.48242 369.0332 C 110.91886 381.71446 115.96714 391.19478 126.67578 397.39453 C 115.40353 432.90207 112.18961 460.21536 118.23438 550.88672 C 106.74931 555.72252 94.601204 556.14386 81.302734 552.21484 C 68.004296 548.28583 57.353787 544.67612 49.193359 541.35156 C 42.052982 538.44259 37.887634 535.97147 36.763672 533.98828 C 36.698692 533.85029 36.553741 533.51704 36.519531 533.38477 L 36.400391 533.26367 C 36.098108 531.14795 34.473544 530.18411 31.451172 530.48633 C 28.428796 530.78878 25.238682 530.54972 21.914062 529.64258 C 18.589444 528.73585 14.378249 527.77186 9.2402344 526.86523 C 4.1021864 525.95851 0.31440933 527.76328 -2.1035156 532.29688 C -4.5213986 536.83046 -4.1019637 541.64513 -0.77734375 546.7832 C 2.5472773 551.92145 6.5172206 555.53074 11.050781 557.64648 C 15.584342 559.76192 18.774459 560.30242 20.587891 559.09375 C 56.251937 572.39216 87.656005 580.81455 114.85742 584.44141 C 121.50669 654.56055 129.41497 696.62687 139.8418 765.95117 C 150.26862 835.27536 154.58732 853.36401 152.89648 874.78125 C 152.89648 889.99872 147.68081 899.31153 137.25391 902.69336 C 126.82708 906.0753 106.46627 917.62913 76.03125 937.35547 L 60.724609 937.35547 C 50.999744 937.35547 48.255683 942.28159 52.488281 952.11914 L 31.396484 952.11914 L 0 1000 L 331.29297 1000 L 331.29297 952.11914 L 316.37891 952.11914 L 313.38477 952.11914 L 313.38477 381.58594 C 338.59785 381.26634 365.41854 379.48418 393.85352 376.23438 C 401.18025 345.23609 405.66852 318.81627 407.35938 297.11719 C 409.05021 275.41813 413.31478 252.47556 420.07812 228.24023 C 430.22314 216.40438 437.51435 202.37988 442.02344 186.03516 C 443.15077 182.08986 443.71094 176.14449 443.71094 168.25391 C 443.71094 160.36338 444.04906 153.29348 444.61328 147.09375 C 444.61328 146.14787 444.49848 142.93359 442.92773 142.93359 C 441.23693 141.2428 439.55414 141.4662 437.86328 143.7207 C 436.66947 141.93015 435.62209 141.27035 434.73438 141.25 C 433.43694 141.2201 432.47877 142.55606 431.89648 143.7207 C 430.66061 142.1757 428.35739 140.00008 426.04688 144.62109 C 422.5584 141.13259 420.08008 144.03097 420.08008 147.99805 C 420.64361 157.57947 420.47582 164.87277 419.63086 169.94531 C 418.78548 175.01777 416.37302 183.20627 412.42773 194.47852 C 411.65281 196.02849 410.72453 197.14623 409.95117 197.62891 C 409.66971 197.76939 409.33262 197.85547 409.05078 197.85547 C 408.94837 197.84237 408.63542 197.78397 408.48633 197.74414 L 408.375 197.63086 L 408.26172 197.63086 C 407.60544 197.14298 406.96166 196.02842 406.57422 194.47852 C 406.57422 191.66048 407.35998 187.73268 409.05078 182.66016 C 410.74089 177.58641 411.24587 173.54851 410.40039 170.73047 C 409.55502 167.91243 407.70475 167.12668 404.88672 168.25391 C 402.63229 168.81744 401.67719 171.45341 401.95898 176.24414 C 402.24099 181.03482 400.22122 187.87925 395.99414 196.61523 C 391.76549 205.34943 391.03544 215.28051 393.85352 226.55273 C 378.63594 280.65951 368.20449 319.58806 362.56836 343.25977 C 347.13002 340.31911 330.73776 338.19976 313.38477 336.92383 L 313.38477 253.42969 C 313.38477 218.16173 303.79878 181.5374 263.98633 181.51953 L 289.86133 62.574219 C 295.49745 38.338899 292.69213 22.857074 281.41992 16.09375 C 270.1477 9.330386 260.051 8.7681472 251.0332 14.404297 C 245.96068 4.8228774 236.64778 2.3684758e-15 223.12109 0 z M 224.55078 18.789062 C 226.54002 18.822512 228.58802 19.404122 230.77344 20.257812 C 240.07607 23.89172 242.26307 32.949052 236.62695 49.857422 L 194.58789 181.51953 L 149.29883 181.51953 L 206.24023 40.628906 C 213.15851 23.511025 218.58308 18.688728 224.55078 18.789062 z M 260.9375 29.785156 C 263.64317 29.796646 266.29952 30.615186 268.81445 31.289062 C 278.32209 33.836625 280.63889 43.07796 275.56641 59.986328 L 246.64062 181.51953 L 204.24023 181.51953 L 243.37891 51.544922 C 248.79715 33.637037 254.98502 29.759885 260.9375 29.785156 z M 426.83008 32.074219 L 324.52734 295.08984 L 342.31055 300.94336 L 426.83008 82.044922 L 504.59766 246.81055 L 519.79102 241.74609 L 511.35156 223.17578 L 519.00391 217.32227 L 531.7207 234.20508 L 544.32617 225.76367 L 531.7207 208.76953 L 540.95117 202.01758 L 553.66797 219.01172 L 563.79688 206.29297 L 426.83008 32.074219 z M 436.95898 70.115234 L 532.50977 191.88867 L 505.5 210.45703 L 436.95898 70.115234 z M 147.24023 195.00977 L 249.04883 195.00977 C 247.58038 239.94574 238.39115 273.77348 217.16016 284.96094 C 217.16016 272.78856 210.06137 262.41386 199.80469 255.66797 C 200.42281 254.45102 200.99486 253.22127 201.51562 251.98828 C 204.61578 244.66134 204.44761 239.10683 201.06641 235.44336 C 197.68436 231.78016 193.14255 230.48998 187.22461 231.61719 C 181.30671 232.74439 177.99519 240.37257 177.43164 254.46289 L 173.26758 254.46289 L 172.36914 239.26953 C 164.47858 234.76062 154.04319 231.61856 141.08008 229.92773 C 145.30963 223.00021 148.20276 209.29283 147.24023 195.00977 z M 263.86914 195.00977 L 263.95898 195.00977 C 275.87995 195.00977 299.89453 197.68727 299.89453 253.42969 L 299.89453 336.11133 C 294.93761 335.87729 289.90627 335.70755 284.80078 335.60547 C 267.32883 326.02408 248.70494 322.09824 228.97852 323.78906 C 222.77877 321.53463 219.97348 313.1207 220.53711 298.4668 C 257.10677 275.41869 263.055 236.25299 263.86914 195.00977 z M 191.78125 237.11328 C 194.32051 236.99087 195.91297 239.04749 196.90234 241.40625 C 198.66335 245.60463 196.74161 251.41328 191.38672 258.74023 C 186.03246 266.06718 181.71374 269.65625 178.33203 269.65625 C 174.79174 269.65625 176.50318 265.83091 178.33203 262.9043 L 182.49609 258.74219 C 183.05962 246.90635 185.27537 240.05472 188.91211 238.0332 C 189.98146 237.43879 190.93483 237.15409 191.78125 237.11328 z M 132.63867 237.58008 C 148.9834 238.70735 160.2026 242.0728 166.40234 247.70898 L 166.40234 262.90234 L 174.05664 262.90234 C 170.6749 266.84761 169.71985 270.21321 171.12891 273.03125 C 172.53799 275.84929 176.45068 276.90026 183.67383 273.69727 C 187.14857 272.15643 190.61457 269.07685 193.70508 265.2168 C 202.80048 271.75556 207.03125 278.61242 207.03125 298.4668 C 207.03125 307.48459 208.71399 317.35782 212.0957 328.06641 C 199.69622 339.3387 185.89722 339.90084 170.67969 329.75586 C 164.47989 321.3016 160.77759 311.09172 159.65039 299.25586 L 141.08008 302.63086 C 132.62592 304.32168 127.41008 304.32168 125.4375 302.63086 C 123.46484 300.94006 122.50977 298.69699 122.50977 295.87891 L 136.01562 288.33789 L 136.01562 284.96094 L 120.82227 281.47266 L 120.82227 278.0957 L 129.26367 278.0957 C 125.88196 272.45963 122.51647 270.77688 119.13477 273.03125 C 117.02122 274.44033 115.42687 275.01852 114.4082 274.94531 C 113.58377 274.88611 113.17188 274.01659 113.17188 273.93555 C 116.5506 265.4776 120.25394 258.40958 124.19922 252.77344 C 134.34422 244.88288 144.77768 244.32263 155.48633 251.08594 L 162.24023 251.98828 L 163.02734 251.08594 C 155.69985 247.1403 149.52954 244.50475 144.45703 243.0957 C 139.38451 241.68667 133.99942 242.07955 128.36328 244.33398 L 132.63867 237.58008 z M 137.25391 249.62305 C 132.745 249.76353 129.77231 252.26203 128.36328 257.05273 C 131.18137 263.25243 140.26879 262.91375 155.48633 256.15039 C 147.87755 251.6415 141.7628 249.48215 137.25391 249.62305 z M 124.76172 287.43945 C 126.91045 287.33383 129.53881 287.29844 132.63867 287.43945 L 118.23438 291.71484 C 117.22946 290.45183 117.26202 289.78652 118.11914 288.79102 C 119.19201 288.05089 121.46948 287.60322 124.75977 287.44141 L 124.76172 287.43945 z M 229.65234 336.28125 C 235.88729 335.9644 243.78944 337.76791 253.51172 341.57227 C 238.2942 361.29869 217.764 371.17188 191.83789 371.17188 C 165.34814 371.17188 148.40708 365.78673 141.08008 355.07812 L 167.30469 343.25977 C 184.21301 351.71393 203.0604 349.6944 223.91406 337.29492 C 225.60488 336.7314 227.57401 336.38693 229.65234 336.28125 z M 255.20117 371.95898 C 237.72923 410.28459 222.58416 445.54802 209.62109 526.14453 C 228.22027 570.66982 230.1246 601.07299 215.4707 617.41797 C 204.39629 642.17929 205.67714 673.93259 207.93164 697.32227 C 213.6388 756.53517 183.7407 756.79005 201.9668 800.95312 C 209.29376 818.70691 207.83449 835.28204 197.68945 905.16992 C 206.14361 929.96888 206.14361 944.32808 197.68945 948.27344 L 95.386719 948.27344 L 95.386719 944.89648 C 117.36757 932.49684 135.82405 922.96261 150.75977 916.19922 C 165.69549 909.43594 173.26758 899.89961 173.26758 887.5 C 173.26758 867.77373 169.39786 852.71574 161.78906 787.90039 C 154.18029 723.08451 146.88694 664.10427 139.8418 569.69922 C 132.79667 475.29426 135.99478 429.42799 149.52148 383.77539 C 154.59395 388.28433 169.85035 390.5293 195.21289 390.5293 C 221.13904 390.52929 241.11089 384.35842 255.20117 371.95898 z M 284.80078 381.29883 C 289.76305 381.46706 294.7944 381.57222 299.89453 381.61523 L 299.89453 952.11914 L 224.70312 952.11914 C 228.00194 942.01906 225.48669 926.10233 217.16016 904.38086 C 227.30521 833.92947 228.98984 817.35616 222.22656 800.16602 C 205.69541 758.14883 231.62346 755.15578 227.29102 698.11133 C 224.40974 660.16908 225.77643 638.78556 235.73047 625.85742 C 251.56182 605.29591 247.91585 570.11102 228.18945 522.76758 C 240.5889 444.98913 251.02436 422.40416 259.47852 406.62305 C 267.93269 390.84193 276.3466 382.4261 284.80078 381.29883 z M 40.03125 966.24805 L 315.59375 966.24805 L 315.59375 986.65625 L 26.6875 986.65625 L 40.03125 966.24805 z " />
</svg>
